symbolic/16x16/actions/zoom-2-to-1.svg

<svg xmlns="http://www.w3.org/2000/svg" width="16" height="16"><defs><style id="current-color-scheme" type="text/css"></style></defs><path style="fill:currentColor;color:#323a41" d="M12 9v3H9v2h4c1 0 1-1 1-1V9zM2 9v4s0 1 1 1h4v-2H4V9zm7-7v2h3v3h2V3s0-1-1-1zM3 2C2 2 2 3 2 3v4h2V4h3V2zm7 8h1V6h-1zM8 6v4l2-2zM5 5v6h2V5z"/></svg>

<svg xmlns="http://www.w3.org/2000/svg" width="16" height="16" version="1.1">
 <defs>
  <style id="current-color-scheme" type="text/css">
   .ColorScheme-Text { color:#323a41; } .ColorScheme-Highlight { color:#4285f4; } .ColorScheme-NeutralText { color:#ff9800; } .ColorScheme-PositiveText { color:#4caf50; } .ColorScheme-NegativeText { color:#f44336; }
  </style>
 </defs>
 <path style="fill:currentColor" class="ColorScheme-Text" d="M 12,9 V 12 H 9 V 14 H 13 C 14,14 14,13 14,13 V 9 Z M 2,9 V 13 C 2,13 2,14 3,14 H 7 V 12 H 4 V 9 Z M 9,2 V 4 H 12 V 7 H 14 V 3 C 14,3 14,2 13,2 Z M 3,2 C 2,2 2,3 2,3 V 7 H 4 V 4 H 7 V 2 Z M 10,10 H 11 V 6 H 10 Z M 8,6 V 10 L 10,8 Z M 5,5 V 11 H 7 V 5 Z"/>
</svg>
